!! 00000] TT[WS
!!!OTL: Baijia shan
!!!ARE: Asia, China, Shanxi Dingxiang
!! Ethnic Group: Han
!! WII, 234
!!!SCT: J0752
!!!YEM: Copyright 1995, estate of Helmut Schaffrath.
**kern
*ICvox
*Ivox
*M2/4
*k[b-]
*F:
{8g
16g
16a
16g
16f
16d
16c
=1
4f
4d
=2
8g
16g
16a
16g
16f
16dd
16cc
=3
4f
4d}
=4
{8g
8f
4g
=5
4cc
16dd
16ff
16dd
16cc
=6
8b-
8cc
8g
8f
=7
8d
16f
16f
16d
16c
8B-
=8
2c}
==
!!!AGN: Xiaodiao. XÅshi, Xinminge
!!!ONB: ESAC (Essen Associative Code) Database: CHINA
!!!AMT: simple duple
!!!AIN: vox
!!!EED: Helmut Schaffrath
!!!EEV: 1.0
*-
